polaris-icons/icons/new-icons/PaginationEndMinor.svg

<svg width="20" height="20" viewBox="0 0 20 20" fill="none" xmlns="http://www.w3.org/2000/svg">
<path fill-rule="evenodd" clip-rule="evenodd" d="M5.45385 13.736C5.16996 14.0376 5.18435 14.5123 5.48598 14.7962C5.78761 15.08 6.26226 15.0657 6.54615 14.764L10.5462 10.514C10.818 10.2252 10.818 9.77477 10.5462 9.48598L6.54615 5.23598C6.26227 4.93435 5.78761 4.91996 5.48598 5.20385C5.18435 5.48774 5.16996 5.96239 5.45385 6.26402L8.97007 10L5.45385 13.736ZM14.75 5.75C14.75 5.33579 14.4142 5 14 5C13.5858 5 13.25 5.33579 13.25 5.75V14.25C13.25 14.6642 13.5858 15 14 15C14.4142 15 14.75 14.6642 14.75 14.25V5.75Z" fill="#4A4A4A"/>
</svg>

<svg viewBox="0 0 20 20" xmlns="http://www.w3.org/2000/svg"><path fill-rule="evenodd" d="M5.454 13.736a.75.75 0 1 0 1.092 1.028l4-4.25a.75.75 0 0 0 0-1.028l-4-4.25a.75.75 0 1 0-1.092 1.028l3.516 3.736-3.516 3.736Zm9.296-7.986a.75.75 0 0 0-1.5 0v8.5a.75.75 0 0 0 1.5 0v-8.5Z" fill="#5C5F62"/></svg>
